packages/nimble-tokens/assets-icons/Details_16x16.svg

<svg id="Layer_1" data-name="Layer 1" xmlns="http://www.w3.org/2000/svg" viewBox="0 0 16 16"><path d="M6.53966.51l-2.771,1.143.644,1.561a5.92857,5.92857,0,0,0-1.187,1.181l-1.559-.648L.51466,6.513l1.559.649a6.025,6.025,0,0,0-.003,1.675l-1.56.643,1.142,2.772,1.561-.643a6.03057,6.03057,0,0,0,1.181,1.186l-.648,1.559,2.768,1.151.648-1.558a5.84941,5.84941,0,0,0,.843.06,5.92466,5.92466,0,0,0,.832-.058l.643,1.561,2.772-1.142-.643-1.561a6.03527,6.03527,0,0,0,1.187-1.181l1.557.648,1.152-2.768-1.559-.648a5.91231,5.91231,0,0,0,.003-1.675l1.561-.643-1.143-2.772-1.561.643a5.92364,5.92364,0,0,0-1.181-1.186l.648-1.558L9.50766.515l-.649,1.559a5.89249,5.89249,0,0,0-.846-.061,6.01,6.01,0,0,0-.828.058Zm1.469,11.249a3.74822,3.74822,0,1,1,3.462-2.308,3.72968,3.72968,0,0,1-3.462,2.308m.002-5.248a1.50076,1.50076,0,1,0,.576.116,1.498,1.498,0,0,0-.576-.116" opacity="0.7"/></svg>

<svg id="Layer_1" data-name="Layer 1" xmlns="http://www.w3.org/2000/svg" viewBox="0 0 16 16"><title>SkylineIcons</title><path class="cls-1" d="M6.54.51,3.77,1.65l.64,1.56A6.28,6.28,0,0,0,3.23,4.39L1.67,3.75.51,6.51l1.56.65a5.91,5.91,0,0,0,0,1.68L.51,9.48l1.14,2.77,1.56-.64a6.28,6.28,0,0,0,1.18,1.18l-.64,1.56L6.51,15.5,7.16,14A6.07,6.07,0,0,0,8,14,5.9,5.9,0,0,0,8.84,14l.64,1.56,2.77-1.14-.64-1.56a6.64,6.64,0,0,0,1.19-1.18l1.55.64,1.16-2.76L14,8.86a5.91,5.91,0,0,0,0-1.68l1.56-.64L14.37,3.77l-1.56.64a6.33,6.33,0,0,0-1.18-1.19l.64-1.55L9.51.51,8.86,2.07A6.07,6.07,0,0,0,8,2a5.79,5.79,0,0,0-.83.06ZM8,11.76a3.67,3.67,0,0,1-1.44-.29A3.75,3.75,0,0,1,8,4.26a3.67,3.67,0,0,1,1.44.29A3.75,3.75,0,0,1,8,11.76M8,6.51a1.5,1.5,0,1,0,.58.12A1.5,1.5,0,0,0,8,6.51"/></svg>
